Simply-Orange-Circles/scalable/apps/bomber.svg

<svg xmlns="http://www.w3.org/2000/svg" width="48" height="48" viewBox="0 0 12.7 12.7"><path d="M6.34.07a6.29 6.29 0 0 0-6.29 6.3 6.29 6.29 0 0 0 6.3 6.28 6.29 6.29 0 0 0 6.28-6.29A6.29 6.29 0 0 0 6.34.07zM6.32 1l.01.01a5.4 5.4 0 0 1 5.4 5.4 5.4 5.4 0 0 1-5.4 5.41 5.4 5.4 0 0 1-5.41-5.4A5.4 5.4 0 0 1 6.32 1zm-2.8 1.46c-.24.08.54 1.52.35 1.62l-.74.28v-.32h-.95V6.9h.95v-.32l2.53.32c.22.02-3.48 2.21-3.48 2.21 1.1 0 12.25-2.94 7.83-5.02a7.72 7.72 0 0 0-4.82-.48c-.25.06-1.46-1.22-1.68-1.14zm4.44 1.26a8.33 8.33 0 0 1 .78.17l.09.03a6.02 6.02 0 0 1 .62.21c.79.3 1.21.64 1.34 1.02-1.52.05-2.76-.35-2.83-1.25v-.18z" fill="#ff7f2a"/></svg>

<?xml version="1.0" encoding="UTF-8" standalone="no"?>
<svg
   xmlns:dc="http://purl.org/dc/elements/1.1/"
   xmlns:cc="http://creativecommons.org/ns#"
   xmlns:rdf="http://www.w3.org/1999/02/22-rdf-syntax-ns#"
   xmlns:svg="http://www.w3.org/2000/svg"
   xmlns="http://www.w3.org/2000/svg"
   xmlns:sodipodi="http://sodipodi.sourceforge.net/DTD/sodipodi-0.dtd"
   xmlns:inkscape="http://www.inkscape.org/namespaces/inkscape"
   width="48"
   height="48"
   viewBox="0 0 12.7 12.7"
   version="1.1"
   id="svg4"
   sodipodi:docname="bomber.svg"
   inkscape:version="0.92.4 (5da689c313, 2019-01-14)">
  <metadata
     id="metadata10">
    <rdf:RDF>
      <cc:Work
         rdf:about="">
        <dc:format>image/svg+xml</dc:format>
        <dc:type
           rdf:resource="http://purl.org/dc/dcmitype/StillImage" />
        <dc:title></dc:title>
      </cc:Work>
    </rdf:RDF>
  </metadata>
  <defs
     id="defs8" />
  <sodipodi:namedview
     pagecolor="#ffffff"
     bordercolor="#666666"
     borderopacity="1"
     objecttolerance="10"
     gridtolerance="10"
     guidetolerance="10"
     inkscape:pageopacity="0"
     inkscape:pageshadow="2"
     inkscape:window-width="1087"
     inkscape:window-height="480"
     id="namedview6"
     showgrid="false"
     inkscape:zoom="4.9166667"
     inkscape:cx="2.1355932"
     inkscape:cy="24"
     inkscape:window-x="0"
     inkscape:window-y="25"
     inkscape:window-maximized="0"
     inkscape:current-layer="svg4" />
  <path
     d="M 6.34,0.07 A 6.29,6.29 0 0 0 0.05,6.37 6.29,6.29 0 0 0 6.35,12.65 6.29,6.29 0 0 0 12.63,6.36 6.29,6.29 0 0 0 6.34,0.07 Z M 6.32,1 6.33,1.01 a 5.4,5.4 0 0 1 5.4,5.4 5.4,5.4 0 0 1 -5.4,5.41 A 5.4,5.4 0 0 1 0.92,6.42 5.4,5.4 0 0 1 6.32,1 Z M 3.52,2.46 C 3.28,2.54 4.06,3.98 3.87,4.08 L 3.13,4.36 V 4.04 H 2.18 V 6.9 H 3.13 V 6.58 L 5.66,6.9 c 0.22,0.02 -3.48,2.21 -3.48,2.21 1.1,0 12.25,-2.94 7.83,-5.02 A 7.72,7.72 0 0 0 5.19,3.61 C 4.94,3.67 3.73,2.39 3.51,2.47 Z m 4.44,1.26 a 8.33,8.33 0 0 1 0.78,0.17 l 0.09,0.03 a 6.02,6.02 0 0 1 0.62,0.21 c 0.79,0.3 1.21,0.64 1.34,1.02 C 9.27,5.2 8.03,4.8 7.96,3.9 Z"
     id="path2"
     inkscape:connector-curvature="0"
     style="fill:#ff7f2a" />
</svg>
